src/img/services-inspiration.svg

<svg width="38" height="38" viewBox="0 0 38 38" fill="none" xmlns="http://www.w3.org/2000/svg">
<path d="M13.643 6.52199C13.5571 6.24028 13.259 6.0815 12.9773 6.16734C11.8782 6.45292 10.8712 7.017 10.0537 7.80512C9.31 8.604 8.73541 9.54492 8.36445 10.5714C8.20454 11.0442 8.07274 11.5261 7.96974 12.0145L7.9164 12.2454C7.87086 12.4316 7.92879 12.628 8.06814 12.7597C8.20748 12.8913 8.4068 12.9381 8.59019 12.8822C8.77359 12.8262 8.91284 12.6762 8.95492 12.4891L9.00826 12.2571C9.10184 11.8116 9.22098 11.3718 9.36511 10.9399C9.6868 10.0497 10.1846 9.23355 10.8288 8.54001C11.5201 7.88839 12.3662 7.42382 13.2872 7.19022C13.4233 7.14923 13.5374 7.05562 13.6042 6.93016C13.671 6.8047 13.685 6.65777 13.643 6.52199Z" fill="white"/>
<path d="M7.79829 14.7306C8.09288 14.7306 8.33169 14.4918 8.33169 14.1972C8.33169 13.9026 8.09288 13.6638 7.79829 13.6638C7.5037 13.6638 7.26489 13.9026 7.26489 14.1972C7.26489 14.4918 7.5037 14.7306 7.79829 14.7306Z" fill="white"/>
<path d="M15.7046 21.9798C15.4913 22.2545 15.3723 22.4108 15.3723 22.4108C15.1956 22.6465 15.2433 22.9808 15.479 23.1575C15.7147 23.3343 16.049 23.2865 16.2258 23.0509C16.2258 23.0477 16.3388 22.8989 16.5458 22.6391C16.7277 22.4073 16.6872 22.0718 16.4554 21.8899C16.2236 21.708 15.8881 21.7485 15.7062 21.9804L15.7046 21.9798Z" fill="white"/>
<path d="M17.8798 19.3706C17.6558 19.625 17.4435 19.8704 17.244 20.104C17.0525 20.3279 17.0788 20.6646 17.3027 20.8561C17.5266 21.0476 17.8633 21.0213 18.0548 20.7974C18.2511 20.5681 18.4591 20.327 18.6799 20.0773C18.8751 19.8564 18.8542 19.5191 18.6333 19.3239C18.4123 19.1288 18.075 19.1496 17.8798 19.3706Z" fill="white"/>
<path d="M20.2027 16.8903C19.9705 17.1222 19.7436 17.3533 19.522 17.5837C19.318 17.7964 19.3251 18.1342 19.5378 18.3382C19.7505 18.5422 20.0883 18.5352 20.2923 18.3225C20.5085 18.097 20.73 17.8705 20.9569 17.6429C21.0987 17.5097 21.1568 17.3098 21.1084 17.1213C21.0599 16.9329 20.9127 16.7857 20.7242 16.7374C20.5356 16.6891 20.3358 16.7473 20.2027 16.8893V16.8903Z" fill="white"/>
<path d="M20.0664 13.664C20.065 13.0223 19.7751 12.4153 19.277 12.0107C19.79 10.9867 19.4027 9.74041 18.3996 9.18738C17.3965 8.63435 16.1357 8.97193 15.5432 9.95215C14.9355 9.87614 14.3243 10.0635 13.8636 10.467C13.403 10.8705 13.1368 11.4517 13.1323 12.064C13.1323 12.1238 13.1323 12.184 13.1403 12.2454C12.5815 12.8728 12.4431 13.7698 12.7867 14.5364C13.1304 15.3031 13.8922 15.7967 14.7325 15.7972H17.9329C19.1112 15.7972 20.0664 14.8421 20.0664 13.664ZM18.6865 14.4175C18.4872 14.6183 18.2158 14.731 17.9329 14.7306H14.7325C14.301 14.73 13.9123 14.4697 13.7477 14.0709C13.583 13.6721 13.6749 13.2135 13.9804 12.9088C13.9926 12.896 14.007 12.8811 14.0166 12.8725C14.1911 12.7492 14.275 12.5336 14.23 12.3248C14.2103 12.2393 14.2 12.1518 14.1991 12.064C14.1991 11.475 14.6767 10.9974 15.2659 10.9974C15.3996 10.9978 15.532 11.024 15.6558 11.0748C15.7977 11.133 15.9579 11.1273 16.0954 11.0591C16.2329 10.9909 16.3343 10.8668 16.3737 10.7185C16.5191 10.2095 17.0157 9.88409 17.5405 9.95404C18.0653 10.024 18.4594 10.4681 18.4663 10.9974C18.4683 11.2919 18.3452 11.5734 18.1275 11.7718C17.9901 11.8976 17.9282 12.086 17.9644 12.2688C18.0006 12.4516 18.1296 12.6022 18.3046 12.6661C18.645 12.7921 18.8977 13.0828 18.975 13.4373C19.0523 13.7919 18.9436 14.1613 18.6865 14.4175Z" fill="white"/>
<path d="M34.4684 20.0638C34.4656 18.9084 33.5433 17.9653 32.3881 17.9364L34.9927 3.62677C34.9935 3.61113 34.9935 3.59547 34.9927 3.57984C34.9975 3.5382 34.9975 3.49615 34.9927 3.45451C34.9927 3.44811 34.9927 3.44224 34.9927 3.43584C34.9927 3.42944 34.9927 3.42998 34.9895 3.42678C34.9837 3.40794 34.977 3.38943 34.9692 3.37131C34.9587 3.33711 34.9448 3.30406 34.9276 3.27265C34.9207 3.26092 34.9175 3.24705 34.91 3.23585C34.9026 3.22465 34.886 3.21132 34.8754 3.19692C34.8647 3.18252 34.8583 3.16706 34.8455 3.15426C34.8327 3.14146 34.8161 3.13559 34.8028 3.12439C34.7895 3.11319 34.7799 3.09986 34.766 3.09026C34.7521 3.08066 34.7409 3.07906 34.7287 3.07213C34.6969 3.05451 34.6632 3.04038 34.6284 3.03C34.6111 3.02228 34.5933 3.01586 34.5751 3.0108C34.5713 3.0108 34.5687 3.00707 34.5649 3.00653C34.5612 3.006 34.5527 3.00653 34.5463 3.00653C34.5041 3.0012 34.4615 3.0012 34.4193 3.00653C34.4038 3.00653 34.3894 3.0028 34.374 3.00653L25.7206 4.57978C23.6781 3.43021 21.3499 2.88721 19.0094 3.01453C17.2738 3.13489 15.5493 3.3823 13.8499 3.75476C11.4448 4.23473 9.69684 5.07789 8.50363 6.33863C7.5624 7.3456 6.83465 8.53254 6.36417 9.82804C6.17208 10.3855 6.01425 10.9542 5.89158 11.5309L5.83824 11.7559C5.7244 12.1742 5.57171 12.5809 5.38218 12.9708C5.2755 13.214 5.16456 13.4572 5.06908 13.7089C4.94631 13.9891 4.89782 14.2962 4.92826 14.6006C5.03559 15.0785 5.31147 15.5019 5.70542 15.7931C5.96625 16.032 6.13747 16.2005 6.13961 16.3472C6.12052 16.4282 6.08999 16.5062 6.04893 16.5786C5.41017 17.9232 4.62775 19.1947 3.71531 20.371C3.3286 20.8413 2.92322 21.3901 3.00856 21.9394C3.12171 22.3632 3.40091 22.7235 3.78306 22.9388C3.95843 23.0606 4.14362 23.1677 4.33672 23.2588C4.56715 23.3767 4.95386 23.574 4.98107 23.7121C5.01459 23.8944 4.99267 24.0826 4.91813 24.2524C4.83865 24.423 4.75544 24.5697 4.68343 24.6961C4.48821 25.0411 4.16123 25.6192 4.65409 26.0219C4.76931 26.1285 4.96827 26.2827 5.14962 26.4219C5.01611 26.6552 4.95573 26.9233 4.97627 27.1914C5.00457 27.4025 5.11908 27.5925 5.29257 27.7162C5.41099 27.7994 5.5374 27.8719 5.66168 27.9428C5.97746 28.122 6.10067 28.2058 6.14174 28.3732C6.17138 28.5879 6.15316 28.8064 6.0884 29.0132C6.05693 29.1556 6.02653 29.2985 6.00839 29.4398C5.95543 29.9259 6.01548 30.4176 6.18388 30.8766C6.42381 31.7239 7.19038 32.3142 8.07104 32.3298C8.21804 32.3294 8.36461 32.3138 8.50843 32.2834C10.0322 31.9223 11.5338 31.473 13.0055 30.9379C14.2073 31.6429 14.9663 33.7868 15.1642 34.5916C15.2233 34.8295 15.4369 34.9965 15.6821 34.9963L29.0704 34.959C29.2401 34.9587 29.3995 34.8777 29.4997 34.7408C29.5999 34.6039 29.6291 34.4275 29.5782 34.2657C29.4463 33.9044 29.2644 33.5633 29.0378 33.2524C28.9099 33.0681 28.7946 32.8753 28.6927 32.6754C28.4511 32.1866 28.2497 31.679 28.0905 31.1576C27.7858 30.127 27.5746 29.0711 27.4595 28.0026C27.2721 26.4066 27.5142 24.7896 28.1609 23.3185C28.1759 23.2839 28.1956 23.2481 28.2143 23.2119C28.6059 23.5859 29.1262 23.7953 29.6678 23.7969H32.8682C33.7083 23.7962 34.4697 23.3027 34.8134 22.5363C35.157 21.7698 35.0188 20.8731 34.4604 20.2456C34.4684 20.1843 34.4684 20.124 34.4684 20.0638ZM27.5923 14.8043L33.4827 5.97064L31.2109 18.4639C31.208 18.4756 31.2058 18.4876 31.2045 18.4996L31.1261 18.9262L27.5923 14.8043ZM32.0281 4.51685L23.1939 10.4056L19.0713 6.87246L32.0281 4.51685ZM26.5474 11.4498C26.3391 11.2416 26.0015 11.2416 25.7932 11.4498L23.1993 14.0444L23.6415 11.3885L32.5481 5.45387L26.6093 14.3574L23.953 14.8001L26.5474 12.2055C26.6477 12.1055 26.7041 11.9696 26.7041 11.8279C26.7041 11.6863 26.6477 11.5504 26.5474 11.4504V11.4498ZM26.4018 28.1327C26.5248 29.2652 26.7494 30.3843 27.0728 31.4765C27.2483 32.0498 27.4697 32.608 27.7348 33.1458C27.8565 33.3873 27.9946 33.6202 28.1481 33.8428L28.1839 33.8961L16.0853 33.9297C15.7313 32.6646 15.0886 31.4989 14.2078 30.524L14.6878 30.356C15.0452 30.2313 15.3146 30.1374 15.4527 30.0931C17.7378 29.3705 18.8804 28.33 18.8494 27C18.8425 26.7104 18.6057 26.4794 18.316 26.4794H18.3064C18.012 26.4864 17.779 26.7307 17.7858 27.025C17.7986 27.5738 17.349 28.3743 15.1316 29.0756C14.9871 29.122 14.7086 29.219 14.339 29.3481C13.9427 29.4868 13.4386 29.6627 12.8828 29.8515H12.8791C11.378 30.4017 9.84638 30.8647 8.29187 31.2381C7.79458 31.3334 7.31053 31.0199 7.19414 30.5272C7.08046 30.2238 7.03759 29.8984 7.06879 29.5758C7.08266 29.4638 7.10826 29.3529 7.1328 29.2414C7.24148 28.8727 7.25742 28.4829 7.1792 28.1066C7.02406 27.6167 6.66351 27.2184 6.19135 27.0154L6.08093 26.9525C6.13853 26.8362 6.20731 26.7258 6.28629 26.6229C6.37577 26.5095 6.41545 26.3647 6.39625 26.2216C6.37705 26.0785 6.30061 25.9493 6.18441 25.8635C6.0564 25.7696 5.75449 25.5435 5.53367 25.3654C5.55927 25.319 5.58701 25.2678 5.61368 25.2214C5.69742 25.0747 5.7929 24.9041 5.88624 24.7067C6.05504 24.3329 6.10476 23.9162 6.02866 23.5132C5.90065 22.8626 5.2771 22.5437 4.82265 22.3111C4.66919 22.2382 4.52201 22.1528 4.3826 22.0557C4.26918 21.979 4.16279 21.8925 4.06469 21.797C4.06469 21.716 4.15163 21.5197 4.55808 21.0253C5.51344 19.7957 6.33255 18.466 7.00105 17.0597C7.12604 16.8393 7.19646 16.5923 7.2064 16.3392C7.15131 15.8031 6.86719 15.317 6.42711 15.0059C6.21375 14.8081 6.00839 14.6214 5.98439 14.4475C5.98793 14.3217 6.0162 14.1977 6.0676 14.0828C6.15454 13.854 6.25482 13.63 6.35563 13.4055C6.57435 12.9545 6.74905 12.4836 6.8773 11.9991L6.93064 11.7719C7.04323 11.2388 7.18841 10.713 7.36536 10.1976C7.78583 9.03729 8.43685 7.97404 9.27919 7.07192C10.2996 5.99251 11.9056 5.22882 14.0606 4.80057C15.7084 4.43882 17.3804 4.19802 19.0633 4.08008C20.7307 3.97937 22.3992 4.26082 23.9412 4.90297L17.7778 6.02291C17.5754 6.05972 17.4122 6.20965 17.3584 6.40821C17.3046 6.60677 17.3699 6.81856 17.5261 6.95246L22.5779 11.2818L21.9069 15.3083C21.7593 15.5064 21.7697 15.7806 21.9319 15.9669C22.0331 16.0815 22.1786 16.1471 22.3314 16.1472C22.3675 16.1446 22.4033 16.1383 22.4381 16.1285C22.4552 16.1285 22.4723 16.1285 22.4888 16.1243L26.7181 15.4192L28.5893 17.602C28.0079 18.2713 27.9021 19.2306 28.3236 20.0105C27.8255 20.415 27.5357 21.022 27.5342 21.6637C27.5359 21.814 27.5538 21.9636 27.5875 22.1101C27.438 22.364 27.3032 22.6263 27.1838 22.8956C26.462 24.5407 26.192 26.3485 26.4018 28.1327ZM32.8682 22.7303H29.6678C29.3848 22.7308 29.1134 22.6181 28.9141 22.4173C28.7975 22.301 28.7099 22.1588 28.6586 22.0023C28.6201 21.8936 28.6006 21.779 28.601 21.6637C28.6016 21.2191 28.8779 20.8215 29.2944 20.6659C29.4695 20.6019 29.5984 20.4513 29.6346 20.2685C29.6708 20.0857 29.609 19.8973 29.4715 19.7715C29.2544 19.5729 29.1319 19.2914 29.1344 18.9972C29.1354 18.7976 29.1927 18.6024 29.2997 18.434L31.0461 20.4712C31.1474 20.5894 31.2953 20.6573 31.4509 20.6573C31.498 20.6575 31.5448 20.6512 31.5902 20.6387C31.7886 20.5849 31.9384 20.4218 31.9753 20.2195L32.195 19.011C32.2412 19.0032 32.2879 18.9986 32.3348 18.9972C32.924 18.9972 33.4016 19.4747 33.4016 20.0638C33.4007 20.1516 33.3903 20.239 33.3706 20.3246C33.3376 20.5298 33.4167 20.737 33.5781 20.868L33.6219 20.9101C33.9264 21.2152 34.0174 21.6735 33.8526 22.0717C33.6877 22.4699 33.2993 22.7298 32.8682 22.7303Z" fill="white"/>
</svg>

<svg width="38" height="38" fill="none" xmlns="http://www.w3.org/2000/svg"><path d="M13.643 6.522a.533.533 0 0 0-.666-.355 6.607 6.607 0 0 0-2.923 1.638 8.1 8.1 0 0 0-1.69 2.766c-.16.473-.291.955-.394 1.444l-.054.23a.533.533 0 1 0 1.039.244l.053-.232c.094-.445.213-.885.357-1.317a7.06 7.06 0 0 1 1.464-2.4 5.586 5.586 0 0 1 2.458-1.35.533.533 0 0 0 .356-.668ZM7.798 14.73a.533.533 0 1 0 0-1.066.533.533 0 0 0 0 1.067Zm7.907 7.25c-.214.274-.333.43-.333.43a.533.533 0 1 0 .854.64c0-.002.113-.151.32-.41a.534.534 0 0 0-.84-.66h-.001Zm2.175-2.61c-.224.255-.436.5-.636.734a.533.533 0 1 0 .81.693c.197-.229.405-.47.626-.72a.534.534 0 1 0-.8-.706Zm2.323-2.48c-.232.232-.46.463-.681.694a.534.534 0 0 0 .77.739c.216-.226.438-.453.665-.68a.534.534 0 1 0-.754-.754v.001Zm-.137-3.226a2.136 2.136 0 0 0-.789-1.653 2.133 2.133 0 0 0-3.734-2.059 2.145 2.145 0 0 0-2.403 2.293 2.133 2.133 0 0 0 1.592 3.552h3.2a2.133 2.133 0 0 0 2.134-2.133Zm-1.38.754c-.199.2-.47.313-.753.313h-3.2a1.067 1.067 0 0 1-.716-1.858.533.533 0 0 0 .213-.548 1.067 1.067 0 0 1 1.036-1.327c.134 0 .266.026.39.077a.534.534 0 0 0 .718-.356 1.067 1.067 0 0 1 2.092.278c.002.295-.12.576-.338.775a.533.533 0 0 0 .177.894 1.064 1.064 0 0 1 .381 1.752Z" fill="#fff"/><path d="M34.468 20.064a2.133 2.133 0 0 0-2.08-2.128l2.605-14.31a.46.46 0 0 0 0-.046.547.547 0 0 0 0-.125v-.02c0-.006 0-.005-.004-.008a.548.548 0 0 0-.02-.056.528.528 0 0 0-.041-.098c-.007-.012-.01-.026-.018-.037-.007-.011-.024-.025-.035-.04-.01-.013-.017-.029-.03-.042-.012-.013-.029-.018-.042-.03-.014-.01-.023-.024-.037-.034-.014-.01-.025-.01-.037-.018a.505.505 0 0 0-.1-.042.382.382 0 0 0-.054-.02c-.004 0-.006-.003-.01-.003h-.019a.506.506 0 0 0-.127 0c-.015 0-.03-.004-.045 0L25.721 4.58a12.319 12.319 0 0 0-6.712-1.565c-1.735.12-3.46.367-5.16.74-2.404.48-4.152 1.323-5.345 2.584a10.218 10.218 0 0 0-2.14 3.489c-.192.558-.35 1.126-.472 1.703l-.054.225a6.959 6.959 0 0 1-.456 1.215c-.106.243-.217.486-.313.738a1.78 1.78 0 0 0-.14.892c.107.477.382.9.776 1.192.261.239.432.408.435.554a.877.877 0 0 1-.091.232 20.632 20.632 0 0 1-2.334 3.792c-.386.47-.792 1.02-.706 1.568.113.424.392.785.774 1 .175.122.36.229.554.32.23.118.617.315.644.453a.927.927 0 0 1-.063.54 5.95 5.95 0 0 1-.235.444c-.195.345-.522.923-.029 1.326.115.107.314.26.496.4a1.343 1.343 0 0 0-.174.77.77.77 0 0 0 .317.524c.118.083.244.156.369.227.315.179.439.263.48.43.03.215.011.433-.054.64a4.87 4.87 0 0 0-.08.427c-.053.486.007.978.176 1.437A1.998 1.998 0 0 0 8.07 32.33c.147 0 .294-.016.437-.047a40.473 40.473 0 0 0 4.498-1.345c1.201.705 1.96 2.849 2.158 3.654.06.238.273.404.518.404l13.388-.037a.533.533 0 0 0 .508-.693 4.118 4.118 0 0 0-.54-1.014 4.975 4.975 0 0 1-.345-.577 10.046 10.046 0 0 1-.603-1.517 17.883 17.883 0 0 1-.63-3.155 9.024 9.024 0 0 1 .7-4.684c.016-.035.036-.07.054-.107.392.374.912.583 1.454.585h3.2a2.134 2.134 0 0 0 1.592-3.551c.008-.062.008-.122.008-.182Zm-6.876-5.26 5.89-8.833-2.271 12.493a.27.27 0 0 0-.006.036l-.079.426-3.534-4.122Zm4.436-10.287-8.834 5.889-4.123-3.534 12.957-2.355Zm-5.48 6.933a.533.533 0 0 0-.755 0L23.2 14.044l.442-2.655 8.907-5.935-5.939 8.903-2.656.443 2.594-2.595a.533.533 0 0 0 0-.755Zm-.146 16.683c.123 1.132.347 2.251.67 3.344.176.573.398 1.131.663 1.669.122.241.26.474.413.697l.036.053-12.099.034a8.495 8.495 0 0 0-1.877-3.406l.48-.168c.357-.125.627-.219.765-.263 2.285-.723 3.427-1.763 3.396-3.093a.533.533 0 0 0-.533-.52h-.01a.533.533 0 0 0-.52.545c.013.549-.437 1.35-2.654 2.05a44.49 44.49 0 0 0-.793.273c-.396.139-.9.315-1.456.504h-.004a41.483 41.483 0 0 1-4.587 1.386.945.945 0 0 1-1.098-.71 2.128 2.128 0 0 1-.125-.952c.014-.112.04-.223.064-.335.108-.368.124-.758.046-1.134a1.77 1.77 0 0 0-.988-1.092l-.11-.063c.058-.116.126-.226.205-.33a.533.533 0 0 0-.102-.759c-.128-.093-.43-.32-.65-.498l.08-.144a7.39 7.39 0 0 0 .272-.514 2 2 0 0 0 .143-1.194c-.128-.65-.752-.97-1.206-1.202a3.089 3.089 0 0 1-.44-.255 2.314 2.314 0 0 1-.318-.259c0-.081.087-.277.493-.772a21.527 21.527 0 0 0 2.443-3.965c.125-.22.195-.468.205-.72a1.866 1.866 0 0 0-.779-1.334c-.213-.198-.419-.385-.443-.559a.96.96 0 0 1 .084-.364c.087-.229.187-.453.288-.678a7.78 7.78 0 0 0 .521-1.406l.054-.227c.112-.533.257-1.059.434-1.574A9.145 9.145 0 0 1 9.28 7.072c1.02-1.08 2.627-1.843 4.782-2.271a34.616 34.616 0 0 1 5.002-.72c1.668-.102 3.336.18 4.878.822l-6.163 1.12a.533.533 0 0 0-.252.93l5.052 4.329-.671 4.026a.525.525 0 0 0 .424.84.536.536 0 0 0 .107-.02c.017 0 .034 0 .05-.004l4.23-.705 1.871 2.183a2.129 2.129 0 0 0-.265 2.409 2.136 2.136 0 0 0-.79 1.653c.002.15.02.3.053.446a7.656 7.656 0 0 0-.403.786 10.1 10.1 0 0 0-.782 5.237Zm6.466-5.403h-3.2a1.06 1.06 0 0 1-1.01-.728 1.004 1.004 0 0 1-.057-.338c0-.445.277-.843.693-.998a.533.533 0 0 0 .177-.895 1.037 1.037 0 0 1-.337-.774c.001-.2.059-.395.166-.563l1.746 2.037a.533.533 0 0 0 .93-.252l.219-1.208c.046-.008.093-.012.14-.014a1.067 1.067 0 0 1 1.036 1.328.581.581 0 0 0 .207.543l.044.042a1.067 1.067 0 0 1-.754 1.82Z" fill="#fff"/></svg>
